!!!OTL: Der Reiter im Quartier (143), S. 319
!!!id: T0312
**kern
*clefG2
*k[]
*G:
{8d
=1
8g
8g
8g
8b
8g
8b
=2
4.dd
4dd}
=3
{8dd
=4
4cc
8cc
4b
8b
=5
4.a}
4r
=6
{8d
=7
8g
8g
8g
8b
8g
8b
=8
4.dd
4ee}
=9
{8cc
=10
4b
8b
4a
8a
=11
4.g}
4r
=12
{8dd
=13
4dd
8dd
4dd
8gg
=14
4.ee}
4r
=15
{8dd
=16
4cc
8b
4cc
8ee
=17
4.dd}
4r
=18
{8d
=19
8g
8g
8g
8b
8g
8b
=20
4.dd
4ee}
=21
{8cc
=22
4b
8b
4a
8a
=23
4g}
4.r
==
*-
!!!minrhy: 8
!!!meters: 6/8 ]  ZZ[8
!!!cut: Der Reiter im Quartier (143), S. 319
!!!reg: Luxemburg
!!!trd: Singendes Volk, Esch-Alzette 1937, posth.
!!!rhy1: X  XXXXXX  X_.X_
!!!rhy2: X  X_XX_X  X_.0_
!!!key: T0312  08  G 6/8 ]  ZZ[8
!!!mod: SECHSTONSKALA DUR ?]  AMBITUS[11
!!!kad: 52616561
!!!akz: 1355_432_1356_321_556_445_1356_321_
!!!fot: 'a__b__aw_bs_c__cs'aw_bs_
!!!for: 'a__b__a__b__b__b__a__bv_
!!!fok: '/__\__/__\__/__V__/__\__
!! PHRAS[AUFTAKTIG]
!!!fkt: historische, Kriegs- und Soldatenlieder
!!!bem: Heffingen, fff Anna Kimmel, 10.3.1933
!! THILL, Mathias:
!! PR[29] 2K[0] 2G[9] 3K[3] 3G[3] 4A[9] 4Ü[0] 5A[0] 6K[0] 6G[3]
!! 7K[0] 7G[0] 8A[0] MEHR[0] SI[26] ABS[35] SR[9] SP[17]
!! ST[8] 2k[9] 2g[34] 3k[0] 3g[0] 4d[3] 4ü[0] 5d[0] 6k[0] 6g[0]
!! 7k[0] 7g[0] 8d[0] mehr[0] si[46] dm[-20] sr[43] sp[3]
!! 1F[5] 2F[34] 3F[53] 4F[3] LF[0] 2P[0] 3P[5] 4P[0] TRI[0] DF[5] AB[38]
!! TF[0] U3K[0] U3[0] U4[0] U4Ü[0] U5[8] U6K[0] U6[0] U7K[0] U7[0]
!! N1[14] N2K[0] N2[19] N3K[0] N3[28] N4[14] N4Ü[0] N5[11] N6K[0] N6[6]
!!!n7k: 0] N7[0] O1[0] O2K[0] O2[0] O3K[0] O3[0] HÖ[0
